X: 41
T: No_25_Song_Challenging_to_Contest_of_Strength_(a).krn
N: Derived from No_25_Song_Challenging_to_Contest_of_Strength_(a).krn
%%abc-version 2.0
%%abcx-abcm2ps-target-version 5.9.1 (29 Sep 2008)
%%abc-creator hum2abc beta
%%abcx-conversion-date 2019/03/15 08:36:13
%%humdrum-veritas 651177582
%%humdrum-veritas-data 3333194994
%%linebreak <none>
%%barnumbers 0
L: 1/16
M: 3/4
K: G clef=bass
[K:clef=bass][M:3/4]G,3G, G,G,3 G,E, z2 | 
(3G,2A,2G,2 G,G,3 G,2 z E, | 
G,8-G,2 z E, | 
G,8E,2 z2 | 
G,3G, G,G,G, z G,E, z2 | 
(3G,2A,2G,2 G,G,G, z G,A,G, z/ =F,/ | 
G,8G,2 z E, | 
G,8E,4 |]  



